frontend/public/svg/e-commerce/cart-delete.svg

<svg width="158" height="145" viewBox="0 0 158 145" fill="none" xmlns="http://www.w3.org/2000/svg">
<path d="M139.276 51.3333C138.64 50.4595 137.9 49.666 137.073 48.9704C135.564 47.6099 134.066 46.2934 132.402 44.8356C131.953 44.4418 131.498 44.0436 131.038 43.6415C131.165 43.5056 131.291 43.3725 131.416 43.2413C132.016 42.602 132.637 41.9424 133.201 41.244L133.71 40.6134C135.103 38.8964 136.682 36.951 138.072 34.978C138.556 34.3489 138.79 33.563 138.729 32.7716C138.668 31.9801 138.318 31.2388 137.744 30.6907C137.158 30.1746 136.41 29.8811 135.63 29.8616C134.849 29.8422 134.088 30.098 133.477 30.5843C132.545 31.2571 131.677 32.0139 130.884 32.8449C129.517 34.2108 128.149 35.6245 126.827 36.9916L126.686 37.1375C126.298 37.5408 125.907 37.9442 125.514 38.3476C124.986 37.91 124.467 37.4762 123.955 37.0461C122.358 35.7078 120.707 34.3243 119.022 33.0122C117.891 32.1815 116.682 31.4622 115.412 30.8647C114.79 30.5502 114.075 30.4698 113.398 30.6385C112.721 30.8071 112.128 31.2136 111.726 31.7835C111.3 32.2801 111.065 32.9122 111.063 33.5664C111.062 34.2205 111.294 34.8537 111.717 35.3521C112.324 36.0974 112.989 36.7931 113.707 37.4326L114.092 37.797C115.376 39.0178 116.667 40.23 117.964 41.4501L120.208 43.5589L120.119 43.6678C119.827 44.0249 119.593 44.3078 119.35 44.5558C118.76 45.1636 118.156 45.761 117.531 46.3826C116.477 47.4327 115.168 48.7329 113.987 50.0344C113.023 51.0128 112.267 52.1756 111.764 53.4533C111.516 54.0775 111.447 54.7584 111.566 55.4194C111.684 56.0804 111.986 56.6951 112.435 57.1942C112.766 57.537 113.164 57.808 113.604 57.99C114.045 58.1719 114.518 58.261 114.995 58.2518C115.408 58.2501 115.819 58.1902 116.215 58.0739C117.28 57.7192 118.26 57.1445 119.089 56.3876C119.76 55.7862 120.39 55.1405 120.974 54.4547C121.237 54.1568 121.503 53.864 121.78 53.5699L125.641 49.5008L127.61 51.5714C128.839 52.8618 130.027 54.1089 131.214 55.3428L131.503 55.646C132.009 56.2121 132.568 56.7277 133.173 57.1852C135.054 58.5248 137.387 58.4446 138.85 56.9881C139.575 56.2463 140.015 55.2727 140.093 54.2384C140.171 53.2042 139.881 52.1754 139.276 51.3333Z" fill="black"/>
<path d="M44.8319 52.0444L91.3007 49.295C91.5547 47.4389 91.8211 45.592 92.0594 43.7405C94.1446 27.4994 108.253 15.9063 120.584 14.1316C134.112 12.1849 150.633 16.8226 155.878 33.2862C157.41 37.8852 157.705 42.8057 156.736 47.5549C155.706 52.5181 154.216 57.3415 151.461 61.6504C147.808 67.3606 142.775 71.3367 136.103 72.8738C134.255 73.2998 133.505 74.1465 133.1 75.87C131.717 81.7587 130.357 87.6605 128.703 93.4756C127.75 96.6792 126.521 99.7942 125.031 102.786C124.002 104.912 121.738 105.375 119.538 105.411C117.407 105.445 115.271 105.274 113.14 105.23C95.513 104.864 77.8858 104.506 60.2584 104.153C59.713 104.142 59.1664 104.199 58.0801 104.249C59.4381 109.209 60.7244 113.907 62.1335 119.054C63.3806 119.054 64.6973 119.062 66.0107 119.054C83.7561 118.922 101.501 118.761 119.247 118.705C121.361 118.729 123.462 119.048 125.488 119.652C126.375 119.866 127.166 120.37 127.735 121.082C128.305 121.796 128.621 122.679 128.634 123.591C128.646 124.503 128.355 125.395 127.806 126.123C127.256 126.852 126.479 127.377 125.598 127.615C123.372 128.235 121.116 128.739 118.838 129.125C121.78 135.247 121.444 139.354 117.737 141.994C114.551 144.264 110.078 144.16 107.433 141.751C104.078 138.695 104.144 134.327 107.771 128.783H79.5483C81.386 131.629 83.4108 134.139 82.1487 137.305C81.5619 138.858 80.6056 140.245 79.3632 141.346C77.8556 142.551 75.9693 143.181 74.0403 143.127C72.1113 143.072 70.265 142.336 68.8277 141.048C65.5197 138.132 65.4587 134.599 68.6229 128.613C65.735 128.332 62.8403 128.142 59.9754 127.745C57.442 127.394 55.9425 126.029 55.0984 123.376C53.3401 117.853 50.6968 112.592 49.1715 107.018C44.0271 88.2216 39.2044 69.3368 34.2773 50.4817C31.8416 41.1617 29.383 31.8455 27.0983 22.4881C26.982 21.7828 26.6906 21.118 26.2509 20.5543C25.8113 19.9906 25.2376 19.5461 24.5819 19.2615C20.3179 17.2684 16.0599 15.2617 11.8077 13.241C9.38254 12.0832 6.91384 10.9877 4.60944 9.62123C3.47453 8.9219 2.54271 7.9372 1.90717 6.76544C1.61492 6.21969 1.45729 5.61218 1.44728 4.9932C1.43728 4.37421 1.57534 3.76176 1.8498 3.20686C2.12427 2.65195 2.52728 2.17055 3.02531 1.80285C3.52335 1.43514 4.10215 1.19191 4.71327 1.09299C5.92305 0.883588 7.16666 1.0009 8.31573 1.43333C15.4724 4.34879 22.5961 7.34456 29.6868 10.4202C32.9094 11.8228 35.1343 14.0154 34.3658 18.002C34.3425 18.5614 34.448 19.1186 34.6737 19.631C37.854 29.9014 41.042 40.1692 44.2384 50.4343C44.3684 50.8511 44.5399 51.2581 44.8319 52.0444ZM124.28 73.7494C123.073 73.5302 121.982 73.3503 120.896 73.1318C117.386 72.4255 113.803 71.9602 110.386 70.937C103.893 68.9922 98.2086 65.649 94.6165 59.6599C93.5007 57.8031 92.2202 57.3936 90.2636 57.4467C78.9333 57.7552 67.6003 57.9579 56.2691 58.2264C53.0734 58.3019 49.8811 58.4778 46.2555 58.6254C49.5941 71.3144 52.8259 83.5971 55.9509 95.4722H117.818C120.024 88.0569 122.095 81.0938 124.28 73.7494ZM127.383 64.9763C136.677 64.9763 142.605 61.2133 146.069 52.6921C146.728 51.0279 147.274 49.3215 147.704 47.584C150.425 36.9815 145.595 27.4147 135.215 24.0824C130.377 22.5296 125.152 21.9958 120.054 21.5317C117.825 21.4126 115.619 22.0201 113.765 23.2627C105.051 29.301 99.8593 37.3488 100.261 48.416C100.411 52.5463 101.897 55.9383 105.206 58.2171C107.649 59.9803 110.365 61.3299 113.245 62.2122C117.861 63.4842 122.661 64.0895 127.383 64.9795V64.9763Z" fill="black"/>
</svg>

<svg xmlns="http://www.w3.org/2000/svg" width="158" height="145" fill="none" viewBox="0 0 158 145"><path fill="#000" d="M139.276 51.333a13.4 13.4 0 0 0-2.203-2.363 434 434 0 0 0-4.671-4.134l-1.364-1.194q.19-.205.378-.4c.6-.64 1.221-1.3 1.785-1.998l.509-.63c1.393-1.718 2.972-3.663 4.362-5.636a3.22 3.22 0 0 0-.328-4.287 3.324 3.324 0 0 0-4.267-.107c-.932.673-1.8 1.43-2.593 2.26a340 340 0 0 0-4.057 4.148l-.141.146q-.582.604-1.172 1.21-.791-.657-1.559-1.302c-1.597-1.338-3.248-2.722-4.933-4.034a21.7 21.7 0 0 0-3.61-2.147 2.906 2.906 0 0 0-3.686.919 2.75 2.75 0 0 0-.009 3.568 18 18 0 0 0 1.99 2.08l.385.365c1.284 1.22 2.575 2.433 3.872 3.653l2.244 2.109-.089.109c-.292.357-.526.64-.769.888-.59.608-1.194 1.205-1.819 1.827-1.054 1.05-2.363 2.35-3.544 3.651a10.2 10.2 0 0 0-2.223 3.42 3.6 3.6 0 0 0 .671 3.74 3.47 3.47 0 0 0 2.56 1.058 4.4 4.4 0 0 0 1.22-.178 8 8 0 0 0 2.874-1.686 20 20 0 0 0 1.885-1.933c.263-.298.529-.591.806-.885l3.861-4.07 1.969 2.071c1.229 1.29 2.417 2.538 3.604 3.772l.289.303a11.7 11.7 0 0 0 1.67 1.54c1.881 1.339 4.214 1.259 5.677-.198a4.41 4.41 0 0 0 .426-5.655"/><path fill="#000" d="M44.832 52.044 91.3 49.295c.254-1.856.52-3.703.758-5.555 2.086-16.24 16.194-27.834 28.525-29.608 13.528-1.947 30.049 2.69 35.294 19.154a27.65 27.65 0 0 1 .858 14.269c-1.03 4.963-2.52 9.787-5.275 14.095-3.653 5.71-8.686 9.687-15.358 11.224-1.848.426-2.598 1.273-3.003 2.996-1.383 5.889-2.743 11.79-4.397 17.606a58 58 0 0 1-3.672 9.31c-1.029 2.126-3.293 2.589-5.493 2.625-2.131.034-4.267-.137-6.398-.181q-26.44-.548-52.882-1.077c-.545-.011-1.092.046-2.178.096l4.053 14.805c1.248 0 2.564.008 3.878 0 17.745-.132 35.49-.293 53.236-.349 2.114.024 4.215.343 6.241.947a4.113 4.113 0 0 1 2.318 6.471 4.1 4.1 0 0 1-2.208 1.492 67 67 0 0 1-6.76 1.51c2.942 6.122 2.606 10.229-1.101 12.869-3.186 2.27-7.659 2.166-10.304-.243-3.355-3.056-3.289-7.424.338-12.968H79.548c1.838 2.846 3.863 5.356 2.6 8.522a10.2 10.2 0 0 1-2.785 4.041 8.16 8.16 0 0 1-10.535-.298c-3.308-2.916-3.37-6.449-.205-12.435-2.888-.281-5.783-.471-8.648-.868-2.533-.351-4.032-1.716-4.877-4.369-1.758-5.523-4.401-10.784-5.926-16.358-5.145-18.796-9.968-37.681-14.895-56.536-2.435-9.32-4.894-18.636-7.179-27.994a4.28 4.28 0 0 0-2.516-3.226q-6.396-2.99-12.774-6.021c-2.425-1.158-4.894-2.253-7.199-3.62a7.6 7.6 0 0 1-2.702-2.856 3.887 3.887 0 0 1 2.806-5.672 6.9 6.9 0 0 1 3.603.34q10.734 4.374 21.37 8.987c3.223 1.403 5.448 3.595 4.68 7.582a3.66 3.66 0 0 0 .308 1.629q4.77 15.405 9.564 30.803c.13.417.302.824.594 1.61M124.28 73.75c-1.207-.219-2.298-.399-3.384-.617-3.51-.707-7.093-1.172-10.51-2.195-6.493-1.945-12.177-5.288-15.77-11.277-1.115-1.857-2.396-2.266-4.352-2.213-11.33.308-22.664.51-33.995.78-3.196.075-6.388.25-10.013.398l9.695 36.847h61.867zm3.103-8.773c9.294 0 15.222-3.763 18.686-12.284a40 40 0 0 0 1.635-5.108c2.721-10.603-2.109-20.17-12.489-23.502-4.838-1.552-10.063-2.086-15.161-2.55a10.3 10.3 0 0 0-6.289 1.73c-8.714 6.039-13.906 14.087-13.504 25.154.15 4.13 1.636 7.522 4.945 9.801a27.5 27.5 0 0 0 8.039 3.995c4.616 1.272 9.416 1.877 14.138 2.767z"/></svg>
